icons/washing-machine-two-color.svg

<?xml version="1.0" encoding="UTF-8"?><svg xmlns="http://www.w3.org/2000/svg" viewBox="0 0 50 50"><g id="uuid-6ec26b40-7d87-4ab7-9706-b0dddcbad6af"><g><path d="M25.99,14.87c8.33,0,15.11,6.78,15.11,15.11s-6.78,15.11-15.11,15.11-15.11-6.78-15.11-15.11,6.78-15.11,15.11-15.11Zm12.39,12.14c.07-.12,.1-.27,.06-.41-1.52-5.61-6.64-9.53-12.45-9.53-7.12,0-12.91,5.79-12.91,12.91s5.79,12.91,12.91,12.91c5.81,0,10.93-3.92,12.45-9.53,.04-.14,.01-.29-.06-.41-.08-.12-.21-.2-.35-.22-1.38-.19-2.42-1.37-2.42-2.75s1.04-2.57,2.42-2.75c.14-.02,.27-.1,.35-.22Z" fill="#ffcd00"/><path d="M36.41,2.5H6.49v6.98H45.49V2.5h-9.08Zm0,6.23c-1.52,0-2.75-1.23-2.75-2.74s1.23-2.74,2.75-2.74,2.74,1.23,2.74,2.74-1.23,2.74-2.74,2.74Z" fill="#ffcd00"/><path d="M45,.51H5c-.28,0-.5,.23-.5,.5V48.99c0,.27,.22,.5,.5,.5H45c.28,0,.5-.23,.5-.5V1.01c0-.27-.22-.5-.5-.5Zm-.5,47.98H5.5V9.49H44.5V48.49Zm0-40H5.5V1.51H44.5v6.98Zm-4.08-2.99c.28,0,.5-.22,.5-.5s-.22-.5-.5-.5-.5,.22-.5,.5,.22,.5,.5,.5Zm-7.75-.5c0,1.51,1.23,2.74,2.75,2.74s2.74-1.23,2.74-2.74-1.23-2.74-2.74-2.74-2.75,1.23-2.75,2.74Zm4.49,0c0,.96-.78,1.74-1.74,1.74s-1.75-.78-1.75-1.74,.78-1.74,1.75-1.74,1.74,.78,1.74,1.74Zm-12.16,36.9c5.81,0,10.93-3.92,12.45-9.53,.04-.14,.01-.29-.06-.41-.08-.12-.21-.2-.35-.22-1.38-.19-2.42-1.37-2.42-2.75s1.04-2.57,2.42-2.75c.14-.02,.27-.1,.35-.22,.07-.12,.1-.27,.06-.41-1.52-5.61-6.64-9.53-12.45-9.53-7.12,0-12.91,5.79-12.91,12.91s5.79,12.91,12.91,12.91Zm-11.91-12.91c0-6.57,5.34-11.91,11.91-11.91,5.18,0,9.77,3.38,11.34,8.29-1.58,.47-2.72,1.93-2.72,3.62,0,1.47,.87,2.78,2.14,3.39-3.12,.98-6.25-.38-9.55-1.82-4.26-1.86-8.65-3.76-13.06-.38-.04-.39-.06-.79-.06-1.19Zm12.72,2.48c2.53,1.11,5.14,2.24,7.77,2.24,.83,0,1.66-.12,2.49-.38-1.76,4.51-6.15,7.57-11.07,7.57-5.77,0-10.6-4.13-11.68-9.58,4.1-3.5,8.17-1.73,12.49,.15Zm-.81,13.63c8.88,0,16.11-7.23,16.11-16.11s-7.23-16.11-16.11-16.11S8.89,20.11,8.89,28.99s7.23,16.11,16.11,16.11Zm0-31.22c8.33,0,15.11,6.78,15.11,15.11s-6.78,15.11-15.11,15.11-15.11-6.78-15.11-15.11,6.78-15.11,15.11-15.11Zm4.98,16.09c1.16,0,2.1-.95,2.1-2.11s-.94-2.1-2.1-2.1-2.1,.94-2.1,2.1,.94,2.11,2.1,2.11Zm0-3.21c.61,0,1.1,.49,1.1,1.1s-.49,1.11-1.1,1.11-1.1-.5-1.1-1.11,.49-1.1,1.1-1.1Zm.68-2.69c.98,0,1.77-.79,1.77-1.77s-.79-1.77-1.77-1.77-1.77,.79-1.77,1.77,.79,1.77,1.77,1.77Zm0-2.54c.43,0,.77,.34,.77,.77s-.34,.77-.77,.77-.77-.35-.77-.77,.34-.77,.77-.77Zm-.25-17.03c-.28,0-.5,.22-.5,.5s.22,.5,.5,.5,.5-.22,.5-.5-.22-.5-.5-.5Zm-5.8,22.78c1.51,0,2.74-1.23,2.74-2.74s-1.23-2.74-2.74-2.74-2.74,1.23-2.74,2.74,1.23,2.74,2.74,2.74Zm0-4.48c.96,0,1.74,.78,1.74,1.74s-.78,1.74-1.74,1.74-1.74-.78-1.74-1.74,.78-1.74,1.74-1.74Zm.18-18.3H8.35c-.28,0-.5,.22-.5,.5s.22,.5,.5,.5H24.79c.27,0,.5-.22,.5-.5s-.23-.5-.5-.5Z"/></g></g><g id="uuid-3f9f9548-e23d-4470-95de-2447b08a6666"><text transform="translate(.24 54.9)" font-family="Roboto-Regular, Roboto" font-size="6"><tspan x="0" y="0">washing-machine</tspan></text></g></svg>

<?xml version="1.0" encoding="utf-8"?>
<!-- Generator: Adobe Illustrator 26.3.1, SVG Export Plug-In . SVG Version: 6.00 Build 0)  -->
<svg version="1.1" id="Layer_1" xmlns="http://www.w3.org/2000/svg" xmlns:xlink="http://www.w3.org/1999/xlink" x="0px" y="0px"
	 viewBox="0 0 50 50" style="enable-background:new 0 0 50 50;" xml:space="preserve">
<style type="text/css">
	.st0{fill:#FFCD00;}
</style>
<g id="uuid-6c635c76-6fc6-43d1-8470-1cdb5ef4d1db">
	<g>
		<path class="st0" d="M26,14.9c8.3,0,15.1,6.8,15.1,15.1S34.3,45.1,26,45.1S10.9,38.3,10.9,30S17.7,14.9,26,14.9z M38.4,27
			c0.1-0.1,0.1-0.3,0.1-0.4c-1.5-5.6-6.6-9.5-12.5-9.5c-7.1,0-12.9,5.8-12.9,12.9S18.9,42.9,26,42.9c5.8,0,10.9-3.9,12.5-9.5
			c0-0.1,0-0.3-0.1-0.4c-0.1-0.1-0.2-0.2-0.3-0.2c-1.4-0.2-2.4-1.4-2.4-2.8s1-2.6,2.4-2.8C38.2,27.2,38.3,27.1,38.4,27z"/>
		<path class="st0" d="M36.4,2.5H6.5v7h39v-7C45.5,2.5,36.4,2.5,36.4,2.5z M36.4,8.7c-1.5,0-2.8-1.2-2.8-2.7s1.2-2.7,2.8-2.7
			s2.7,1.2,2.7,2.7S37.9,8.7,36.4,8.7z"/>
		<path d="M45,0.5H5C4.7,0.5,4.5,0.7,4.5,1v48c0,0.3,0.2,0.5,0.5,0.5h40c0.3,0,0.5-0.2,0.5-0.5V1C45.5,0.7,45.3,0.5,45,0.5z
			 M44.5,48.5h-39v-39h39C44.5,9.5,44.5,48.5,44.5,48.5z M44.5,8.5h-39v-7h39C44.5,1.5,44.5,8.5,44.5,8.5z M40.4,5.5
			c0.3,0,0.5-0.2,0.5-0.5s-0.2-0.5-0.5-0.5S39.9,4.7,39.9,5S40.1,5.5,40.4,5.5z M32.7,5c0,1.5,1.2,2.7,2.8,2.7s2.7-1.2,2.7-2.7
			s-1.2-2.7-2.7-2.7S32.7,3.5,32.7,5z M37.2,5c0,1-0.8,1.7-1.7,1.7S33.7,6,33.7,5s0.8-1.7,1.8-1.7S37.2,4,37.2,5z M25,41.9
			c5.8,0,10.9-3.9,12.5-9.5c0-0.1,0-0.3-0.1-0.4c-0.1-0.1-0.2-0.2-0.3-0.2c-1.4-0.2-2.4-1.4-2.4-2.8s1-2.6,2.4-2.8
			c0.1,0,0.3-0.1,0.3-0.2c0.1-0.1,0.1-0.3,0.1-0.4c-1.5-5.6-6.6-9.5-12.5-9.5c-7.1,0-12.9,5.8-12.9,12.9S17.9,41.9,25,41.9z
			 M13.1,29c0-6.6,5.3-11.9,11.9-11.9c5.2,0,9.8,3.4,11.3,8.3c-1.6,0.5-2.7,1.9-2.7,3.6c0,1.5,0.9,2.8,2.1,3.4
			c-3.1,1-6.2-0.4-9.5-1.8c-4.3-1.9-8.6-3.8-13.1-0.4C13.1,29.8,13.1,29.4,13.1,29z M25.8,31.5c2.5,1.1,5.1,2.2,7.8,2.2
			c0.8,0,1.7-0.1,2.5-0.4c-1.8,4.5-6.1,7.6-11.1,7.6c-5.8,0-10.6-4.1-11.7-9.6C17.4,27.8,21.5,29.6,25.8,31.5z M25,45.1
			c8.9,0,16.1-7.2,16.1-16.1S33.9,12.9,25,12.9S8.9,20.1,8.9,29S16.1,45.1,25,45.1z M25,13.9c8.3,0,15.1,6.8,15.1,15.1
			S33.3,44.1,25,44.1S9.9,37.3,9.9,29S16.7,13.9,25,13.9z M30,30c1.2,0,2.1-1,2.1-2.1s-0.9-2.1-2.1-2.1s-2.1,0.9-2.1,2.1
			S28.8,30,30,30z M30,26.8c0.6,0,1.1,0.5,1.1,1.1S30.6,29,30,29s-1.1-0.5-1.1-1.1S29.4,26.8,30,26.8z M30.7,24.1
			c1,0,1.8-0.8,1.8-1.8s-0.8-1.8-1.8-1.8s-1.8,0.8-1.8,1.8S29.7,24.1,30.7,24.1z M30.7,21.5c0.4,0,0.8,0.3,0.8,0.8s-0.3,0.8-0.8,0.8
			s-0.8-0.4-0.8-0.8S30.2,21.5,30.7,21.5z M30.4,4.5c-0.3,0-0.5,0.2-0.5,0.5s0.2,0.5,0.5,0.5s0.5-0.2,0.5-0.5S30.7,4.5,30.4,4.5z
			 M24.6,27.3c1.5,0,2.7-1.2,2.7-2.7s-1.2-2.7-2.7-2.7s-2.7,1.2-2.7,2.7S23.1,27.3,24.6,27.3z M24.6,22.8c1,0,1.7,0.8,1.7,1.7
			s-0.8,1.7-1.7,1.7s-1.7-0.8-1.7-1.7S23.6,22.8,24.6,22.8z M24.8,4.5H8.4C8.1,4.5,7.9,4.7,7.9,5s0.2,0.5,0.5,0.5h16.4
			c0.3,0,0.5-0.2,0.5-0.5S25.1,4.5,24.8,4.5z"/>
	</g>
</g>
</svg>
